packages/icons/svgs/duotone/Source=folder-chart.svg

<svg width="24" height="24" viewBox="0 0 24 24" fill="none" xmlns="http://www.w3.org/2000/svg">
<path fill-rule="evenodd" clip-rule="evenodd" d="M12 9C12.5523 9 13 9.44772 13 10V18C13 18.5523 12.5523 19 12 19C11.4477 19 11 18.5523 11 18V10C11 9.44772 11.4477 9 12 9Z" fill="black"/>
<path fill-rule="evenodd" clip-rule="evenodd" d="M8 15C8.55228 15 9 15.4477 9 16V18C9 18.5523 8.55228 19 8 19C7.44772 19 7 18.5523 7 18V16C7 15.4477 7.44772 15 8 15Z" fill="black"/>
<path fill-rule="evenodd" clip-rule="evenodd" d="M16 12C16.5523 12 17 12.4477 17 13V18C17 18.5523 16.5523 19 16 19C15.4477 19 15 18.5523 15 18V13C15 12.4477 15.4477 12 16 12Z" fill="black"/>
<path opacity="0.55" fill-rule="evenodd" clip-rule="evenodd" d="M0 2C0 1.44772 0.447715 1 1 1H9C9.31476 1 9.61115 1.14819 9.8 1.4L12.5 5H23C23.5523 5 24 5.44772 24 6V20C24 20.7957 23.6839 21.5587 23.1213 22.1213C22.5587 22.6839 21.7957 23 21 23H3C2.20435 23 1.44129 22.6839 0.87868 22.1213C0.316071 21.5587 0 20.7957 0 20V2ZM2 3V20C2 20.2652 2.10536 20.5196 2.29289 20.7071C2.48043 20.8946 2.73478 21 3 21H21C21.2652 21 21.5196 20.8946 21.7071 20.7071C21.8946 20.5196 22 20.2652 22 20V7H12C11.6852 7 11.3889 6.85181 11.2 6.6L8.5 3H2Z" fill="black"/>
</svg>

<svg xmlns="http://www.w3.org/2000/svg" width="24" height="24" viewBox="0 0 24 24"><path fill-rule="evenodd" d="M12 9a1 1 0 0 1 1 1v8a1 1 0 1 1-2 0v-8a1 1 0 0 1 1-1Zm-4 6a1 1 0 0 1 1 1v2a1 1 0 1 1-2 0v-2a1 1 0 0 1 1-1Zm8-3a1 1 0 0 1 1 1v5a1 1 0 1 1-2 0v-5a1 1 0 0 1 1-1Z" clip-rule="evenodd"/><path fill-rule="evenodd" d="M0 2a1 1 0 0 1 1-1h8a1 1 0 0 1 .8.4L12.5 5H23a1 1 0 0 1 1 1v14a3 3 0 0 1-3 3H3a3 3 0 0 1-3-3V2Zm2 1v17a1 1 0 0 0 1 1h18a1 1 0 0 0 1-1V7H12a1 1 0 0 1-.8-.4L8.5 3H2Z" clip-rule="evenodd" opacity=".55"/></svg>
